24x24/apps/vifm.svg

<svg height="24" width="24" xmlns="http://www.w3.org/2000/svg"><path d="m2 5.9v14.1c0 .554.446 1 1 1h18c.555 0 1-.445 1-1v-14.1z" fill="#17191e"/><path d="m12 5.5v15.5h9.001a.997.997 0 0 0 .999-1v-14.5z" fill="#4f4f4f"/><path d="m3 3c-.554 0-1 .446-1 1v2h20v-2c0-.554-.445-1-1-1z" fill="#c8c8c8"/><path d="m3 3c-.554 0-1 .446-1 1v.5c0-.554.446-1 1-1h18c.554 0 1 .446 1 1v-.5c0-.554-.445-1-1-1z" fill="#f4f4f7" opacity=".2"/><path d="m2 20v.5c0 .554.446 1 1 1h18.001a.997.997 0 0 0 .999-1v-.5c0 .554-.445 1-.999 1h-18.001c-.554 0-1-.445-1-1zm0-14h20v.5h-20zm11.674 3.5-2.71 5.928-2.494-4.928h-1.68l3.541 6.996 1.352-.027 3.641-7.969zm2.326 2v1h1v-1zm0 2v4h1v-4z" opacity=".2"/><path d="m13.674 9-2.71 5.928-2.494-4.928h-1.68l3.541 6.996 1.352-.027 3.641-7.969zm2.326 2v1h1v-1zm0 2v4h1v-4z" fill="#1b6cff"/></svg>

<svg xmlns="http://www.w3.org/2000/svg" width="24" height="24" version="1"><path style="fill:#17191e" d="M2 5.9V20c0 .554.446 1 1 1h18c.555 0 1-.445 1-1V5.9z"/><path style="fill:#4f4f4f" d="M12 5.5V21h9.001A.997.997 0 0 0 22 20V5.5z"/><path style="fill:#c8c8c8" d="M3 3c-.554 0-1 .446-1 1v2h20V4c0-.554-.445-1-1-1z"/><path style="opacity:.2;fill:#f4f4f7" d="M3 3c-.554 0-1 .446-1 1v.5c0-.554.446-1 1-1h18c.554 0 1 .446 1 1V4c0-.554-.445-1-1-1z"/><path style="opacity:.2" d="M2 20v.5c0 .554.446 1 1 1h18.001a.997.997 0 0 0 .999-1V20c0 .554-.445 1-.999 1H3c-.554 0-1-.445-1-1zM2 6h20v.5H2zM13.674 9.5l-2.71 5.928L8.47 10.5h-1.68l3.541 6.996 1.352-.027L15.324 9.5zm2.326 2v1h1v-1zm0 2v4h1v-4z"/><path style="fill:#1b6cff" d="m13.674 9-2.71 5.928L8.47 10h-1.68l3.541 6.996 1.352-.027L15.324 9h-1.65zM16 11v1h1v-1h-1zm0 2v4h1v-4h-1z"/></svg>
